X:1
T:G minor Samuel Holyoke, 1804
T:John Newton, 1779 The Lord Will Provide        55. 55. 65. 65. 
T:The Christian's Warrant Transcribed from The Christian Harmonist, 1804.
%%score [ 1 2 3 ]
L:1/8
Q:1/4=120
M:2/2
K:Bb
V:1 treble nm="Treble" snm="Tr."
V:2 treble-8 nm="Tenor" snm="T."
V:3 bass nm="Bass" snm="B."
V:1
"^3. We  may,  like the ships,  By        tem – pest   be tossed   On   pe – ri – lous   deeps,    But      can  – not   be   lost.      Though""^2. The birds without barn   Or       storehouse are fed,     From   them let  us     learn     To        trust  for our bread:        His""^1. Though troubles assail    And    dangers  affright,  Though friends should all fail  And     foes   all      u – nite;        Yet" G2 | %1
 d4 d2 c2 | B6 c2 | d4 d2 c2 | B6 c2 | d4 d2 de | f6 g2 | f4 f2 =e2 | d6 ^f2 | %9
"^1. one thing se – cures us,   What–ev–er   be– tide,       The  scripture assures  us,  The Lord will pro–vide.    Yet  one  thing  se –""^2. saints,  what  is  fitting,    Shall ne’er he denied,       So     long   as  'tis   written,  The Lord will pro–vide.   His  saints, what is""^3. Sa  –  tan  en  – ra – ges    The wind and the tide,      The pro– mise en–ga–ges,  The Lord will  pro–vide.  Though Sa–tan en–" g4 f2 fe | %10
 d4 d2 e2 | f4 f2 e2 | d6 ^f2 | g4 d2 d2 | e4 e2 e2 | d4 c2 B2 | A6 ^f2 | g4 f2 fe | %18
"^1. –cures us, What–ev–er   be– tide,   The  scripture  assures    us,  The  Lord       will   provide.""^2.  fit–ting,  Shall  ne’er he de–nied,   So    long    as  ’tis    written,   The  Lord       will   provide.""^3. – ra–ges  The  wind  and the tide,   The promise  en – ga –ges,    The Lord       will   provide." d4 d2 =e2 | %19
 f4 f2 e2 | d6 ^f2 | g4 d2 d2 | e4 e2 e2 | (d2 c2) B2 A2 | G8 |] %25
V:2
"^4. His   call    we   o – bey        Like     A    –   bram  of   old,      Not  knowing  our  way,        But    faith  makes us  bold;      For""^5. When Sa–tan appears      To         stop     up our path,      And  fill  us  with  fears,        We     tri  –  umph  by faith;       He""^6. He tells us we’re weak,    Our       hope    is   in   vain,       The good that  we seek         We    ne’er  shall  ob – tain,      But" B2 | %1
 B4 B2 A2 | G6 A2 | (B2 A2) B2 A2 | G6 A2 | B4 F2 B2 | c6 Bc | d4 d2 ^c2 | d6 A2 | %9
"^4. though we are strangers   We  have a good guide,   And trust in all    dangers,  The Lord will pro–vide.   For though we are""^5. can–not take  from us,  Though oft he has tried, This heart-cheering promise, The Lord will pro–vide.    He  can –not take""^6. when such suggestions  Our spirits have plied,   This answers all questions,    The Lord will pro–vide.  But when such sug–" B4 A2 A2 | %10
 B4 B2 c2 | d4 d2 c2 | B6 A2 | B4 B2 B2 | c4 c2 c2 | B4 A2 G2 | ^F6 A2 | B4 c2 c2 | %18
"^4. strangers  We  have a good guide,  And  trust   in  all    dangers,  The Lord       will   provide.""^5. from us, Though oft he has tried, This heart–cheering promise, The Lord      will    provide.""^6. –gestions Our spirits have plied, This  answers all  questions,    The  Lord      will    provide." F4 F2 B2 | %19
 c4 A2 A2 | B6 c2 | B4 B2 d2 | c4 c2 A2 | (B2 A2) G2 ^F2 | G8 |] %25
V:3
"^7. No strength of our own,      Or       goodness  we  claim,    Yet  since we have known   The     Savior’s  great  name;      In""^8. When  life  sinks  apace      And    death    is    in   view,    This  word  of  his   grace      Shall   comfort  us   through:     No" G,2 | %1
 G,4 D,2 D,2 | G,6 F,E, | D,4 D,2 D,2 | G,6 F,2 | B,4 B,2 B,2 | A,6 G,2 | A,4 A,2 A,2 | D,6 z2 | %9
"^7. this  our  strong   to – wer  For   safety      we   hide,     The Lord  is   our  po–wer,   The Lord will pro–vide.   In   this  our strong""^8. fea – ring  or   doubting     With Christ on our side,     We hope to die shouting,    The Lord will pro–vide.   No  fea – ring  or" z8 | %10
 z8 | z8 | z8 | z8 | z8 | z8 | z4 z2 D,2 | G,4 A,2 A,2 | %18
"^7.  to–wer   For  safe – ty  we   hide,     The    Lord  is  our    power,    The   Lord     will    provide.""^8. doubting With Christ on our side,  We    hope to die shouting,   The   Lord     will    provide." B,4 B,2 G,2 | %19
 A,4 F,2 F,2 | B,6 A,2 | G,4 G,2 B,2 | F,4 F,2 F,2 | (B,,2 C,2) D,2 D,2 | G,,8 |] %25

